!!!COM: Robert Schumann
!!!CNT: Deutsch
!!!TXO: Deutsch
!!!OTL: Fru2hlingsfahrt
!!!LYR: Eichendorff
!!!OPR: Ausgewa2hlte Lieder
!!!OPS: Op. 45
!!!ONM: No. 2
!!!ENC: Ben Fuhrman
!!!YOR: Schumann Lieder - Max Friedlaender, ed.,
!!!YOR: New York: C. F. Peters, Vol. 1
!!!ODT: 1840/
!!NB: Vocal melody and text only encoded.
!!NB: First instance of melodic material only encoded.
**kern	**silbe
*clefG2	*
*k[]	*
*M4/4	*
!!created: 5/23/06 9:36
!!proofed and posted: 5/23/06 9:37
!!edit time: 67 minutes
=	=
2r	.
4r	.
{4g	{Es
=1	=1
4cc	zo-
8.g	-gen-
16f	zwei
4e	ru2st'-
8.f	-ge
16g	Ge-
=2	=2
2a	-sel-
4d	-len
(8e	zum
8f)	|
=3	=3
4.g	er-
8g	-sten-
(4g	-mal
8a)	|
8b	von
=4	=4
2cc}	Haus,}
4r	.
{(8.g	{so
16ee)	|
=5	=5
4.ee	ju-
8ee	-belnd
4ee	recht
8dd	in
8cc	die
=6	=6
2dd	hel-
4g	-len,
8.a	in
16b	die
=7	=7
4cc	klin-
8.a	-gen-
16g	-den,
4f#	sin-
8.g	-gen-
16a	-den
=8	=8
2b	Wel-
4g	-len
(8.g	des
16e)	|
=9	=9
4.d	vol-
8d	-len
4d	Fru2h-
8.e	-lings
16f#	hin-
=10	=10
[1g	-aus
=11	=11
4g]}	|}
4r	.
2r	.
!! rest to measure 13
=13	=13
2r	.
4r	.
{4g	{Die
=14	=14
4cc	streb-
8.g	-ten
16f	nach
4e	ho-
(8.f	-hen
16g)	|
=15	=15
2a	Din-
4d	-gen,
(8e	die
8f)	|
=16	=16
4g	woll-
8g	-ten,
8g	trotz
(4g	Lust
8a)	|
8b	und
=17	=17
2cc}	Schmerz,}
4r	.
{(8.g	{was
16ee)	|
=18	=18
4ee	Rechts
8ee	in
8ee	der
(4ee	Welt
8dd)	|
8cc	voll-
=19	=19
2dd	-brin-
4g	-gen,
(8.a	und
16b)	|
=20	=20
4cc	wem
8.a	sie
16g	vor-
(4f#	-u2-
8.g)	|
16a	-ber
=21	=21
2b	gin-
4g	-gen,
(8.g	dem
16e)	|
=22	=22
4.d	lach-
8d	-ten
4d	Sin-
8.e	-nen
16f#	und
=23	=23
[1g	Herz.
=24	=24
4g]}	|}
4r	.
2r	.
!! rest to measure 26
=26	=26
2r	.
4r	.
{4g	{Der
=27	=27
4cc	Er-
8.g	-ste,
16f	der
4e	fand
(8.f	ein
16g)	|
=28	=28
2a	Lieb-
4d	-chen,
4d	die
=29	=29
4g	Schwie-
8g	-ger
8g	kauft'
(4g	Hof
8a)	|
8b	und
=30	=30
2cc}	Haus;}
4r	.
{(8.g	der
16ee)	|
=31	=31
4ee	wieg-
8ee	-te
8ee	gar
(4ee	bald
8dd)	|
8cc	ein
=32	=32
2dd	Bu2b-
4g	-chen,
(8.a	und
16b)	|
=33	=33
(4cc	sah-
8a)	|
8g	-aus
4f#	heim-
8.g	-li-
16a	-chem
=34	=34
2b	Stu2b-
4g	-chen
(8g	be-
8e)	|
=35	=35
4d	hag-
8d	-lich
8d	ins
(4d	Feld
8e)	|
8f#	hin-
=36	=36
2g}	-aus}
4r	.
{4g	{Dem
=37	=37
4.a-	Zwei-
8a-	-ten
4cc	san-
8b-	-gen
8a-	und
=38	=38
2g	lo-
4g	-gen
4g	die
=39	=39
4.a-	tau-
8a-	-send
4cc	Stim-
8b-	-men
8a-	im
=40	=40
2.g	Grund,
4g	ver-
=41	=41
4a-	-lok-
8a-	-kend
8a-	Si-
4cc	-re-
8b-	-nen,
8a-	und
=42	=42
2g	zo-
4g	-gen
4g	ihn
=43	=43
4.f	in
8f	die
4a-	buh-
8g	-len-
8f	-den
=44	=44
2e-	Wo-
4e-	-gen,
8e-	in
8e-	der
=45	=45
4.e-	Wo-
8e-	-gen
4e-	far-
8d	-bi-
8c	-gen
=46	=46
2g}	Schlund.}
4r	.
{4g	{Und
=47	=47
4.a-	wie
8a-	er
4cc	auft
8b-	auch't
8a-	vom
=48	=48
2g	Schlun-
4g	-de,
4g	da
=49	=49
4.a-	war
8a-	er
4cc	mu2-
8b-	-de
8a-	und
=50	=50
2.g	alt,
4g	sein
=51	=51
4a-	Schiff-
8a-	-lein
8a-	das
(4cc	lag-
8b-)	|
8a-	im
=52	=52
2g	Grun-
4g	-de,
4g	so
=53	=53
4.f	still
8f	war's
4a-	rings
8g	in
8f	der
=54	=54
2e-	Run-
4e-	-de,
4e-	und
=55	=55
4e-	u2-
8e-	-ber
8e-	den
4e-	Wass-
8d	-ern
8c	weht's
=56	=56
2g}	kalt.}
4r	.
{4g	{Es
=57	=57
4cc	klin-
8g	-gen
8f	und
4e	sin-
8f	-gen
8g	die
=58	=58
(4.a	Wel-
8d)	|
4d}	-len}
8r	.
{8d	{des
=59	=59
4.g	Fru2h-
8g	-lings
4g	wohl
8a	u2-
8b	-ber
=60	=60
2cc}	mir;}
4r	.
{4g	{und
=61	=61
4ee	seh'
8ee	ich
8ee	so
4ee	kek-
8.dd	-ke
16cc	Ge-
=62	=62
2dd	-sel-
4g}	-len}
8r	.
{8g	{die
=63	=63
4cc	Tra2-
8cc	-nen
8cc	im
4cc	Au-
8b	-ge
8a	mir
=64	=64
2b	schwel-
4g	-len
4g	ach
=65	=65
4a	Gott,
8a	fu2hr'
8a	uns
4g	lieb-
8g	-reich
8g	zu
=66	=66
(4f#	dir,
2fn)	|
4e	ach
=67	=67
4a	Gott,
8.d	fu2hr'
16d	uns
4f	lieb-
8B	-reich
8B	zu
=68	=68
4c}	dir!}
4r	.
2r	.
==	==
*-	*-
